X: 8
T: The High Road To Linton
R: reel
M: 4/4
L: 1/8
K: Gmaj
|:c2cA ded2|edcd e2e2|c2cA ded2|edcA G2G2:|
|g2ge a2ad|edcd e2e2|g2ge a2ad|edcA G2G2|
|g2ge a2ad|edcd e2e2|c2cA ded2|edcA G2G2|


Tune 1118	Setting 14381

